!!!COM: Anon.
!!!OCL: Francis James Child
!!!OPR: The English and Scottish Popular Ballads
!!!OVM: Vol. 1
!!!ONB: Ballad No. 38, Tune No. 1
!!!ONM: No. 38
!!!PDT: 1882
!!!YEM: Public domain.
**kern
*M6/8
{8b
=1
8.cc
16b
8a
8a
8g
8e
=2
8.cc
16b
8cc
8c
8d}
!! Second phrase:
{8e
=3
8.cc
16b
8a
8a
8g
8e
=4
8g
8e
8d
4d}
!! Third phrase:
{8b
=5
8.cc
16b
8a
8a
8g
8e
=6
8.cc
16b
8cc
4dd}
!! Fourth phrase:
{8ee
=7
8.cc
16b
8a
8a
8b
8cc
=8
8g
8e
8d
4d}
!! Fifth phrase:
{16e
16f
=9
4g
8e
4g
8e
=10
8.cc
16b
8cc
8c
8d}
!! Sixth phrase:
{8e
=11
4g
8e
4g
8cc
=12
8a
8f
8d
8d
8e}
!! Seventh phrase:
{8f
=13
4g
8e
4g
8e
=14
8.cc
16b
8cc
4dd;}
!! Eighth phrase:
{16ee
16dd
=15
8.cc
16b
8a
8.a
16b
8cc
=16
8g
8e
8d
4d}
====
*-
!!!OCY: Britain; England
!!!PPP: Boston
!!!ODT: <1882
!!!AFR: folk song
!!!AST: monophony
!!!AMT: compound duple
!!!SCA: Child Collection
!!!AIN: vox
!!!EEV: 1.0
!!!RDT: 1987 June
!!!YER: 1994 August 10
!!!VTS: 652652838
